!!!!SEGMENT: pl-wumfc--n57157_a-s--mazure.krn
!!!cenid: 18xx:4122
!!!COM: A. S.
!!!COM-rismID: pe30018413
!!!CDT:
!!!CNT:
!!!OTL: Mazure
!!!PDT:
!!!AGN:
!!!YEC: Copyright 2022 Narodowy Instytut Fryderyka Chopina (https://polishscores.org)
!!!YEM: License CC-BY-4.0 (https://creativecommons.org/licenses/by/4.0)
!!!SMS-siglum: PL-Wumfc
!!!SMS-shelfmark: N57157
!!!SMS-shelfwork: W
!!!SMS-variant:
!!!SMS-altvar:
!!!NIFC-rismSourceID: 1001177942
!!!NIFC-rismChildID: 1001177942
!!!NIFC-islandoraID: pl-wumfc:8162
!!!URL-pdf-islandora: https://repozytorium.nifc.pl/islandora/object/pl-wumfc%3A8162/datastream/PDF/view
!!!URL-scan: https://polish.musicsources.pl/pl/lokalizacje/galeria/druki-muzyczne/12604/1 @EN{Scan on Polish Music Sources Website} @PL{Skany w portalu Dziedzictwo Muzyki Polskiej w otwartym dostępie}
!!!IIIF:
!!!ONB-nifc:
!!!AIN: 1 piano
!!!key: B-
**kern	**kern	**dynam
*part1	*part1	*
*staff2	*staff1	*
*I"Mazur	*I"Mazur	*
*>[A,A,B,B,C,C,D,D]	*>[A,A,B,B,C,C,D,D]	*
*>A	*>A	*
*Ipiano	*Ipiano	*
*ICklav	*ICklav	*
*clefF4	*clefG2	*
*k[b-e-]	*k[b-e-]	*
*B-:	*B-:	*
*M3/8	*M3/8	*
=1	=1	=1
8B- 8BB-\	32b-\KLL	f
.	16.dd\JJ	.
!LO:TX:t=P:problem:diminuendolike accent	!	!
4d^< 4B- 4F\	8.ff\L	<
.	16een\Jk	[[
=2	=2	=2
8B-L 8BB-\	16gg\LL	.
.	16ff\JJ	.
8d 8B- 8F\	8een\L	.
8dJ 8B- 8F\	8ff\J	.
=3	=3	=3
8B- 8BB-\	32f\KLL	.
.	16.b-\JJ	.
!LO:TX:t=P:problem:diminuendolike accent	!	!
4d 4B- 4F^<\	8.dd\L	<
.	16cc#X\Jk	[[
=4	=4	=4
8B-L 8BB-\	16.ee-X\LL	.
.	32dd\K	.
8d 8B- 8F\	16.cc#X\	.
.	32dd\JK	.
8dJ 8B- 8F\	8b-\J	.
=5	=5	=5
8F 8FF/	8a\L	.
!LO:TX:t=P:problem:diminuendolike accent	!	!
4e-^< 4c 4A 4F\	8.gg 8.cc 8.a\	.
.	16ff\Jk	.
!!LO:LB:g=original
=6	=6	=6
8B- 8BB-\	16een\LL	.
.	16ff\JJ	.
!LO:TX:t=P:problem:diminuendolike accent	!	!
4d^< 4B- 4F\	8.bb-\L	.
.	16dd\Jk	.
=7	=7	=7
8F 8FF/	16gg\LL	.
.	16ff\	.
*tremolo	*	*
8e-L 8c 8A 8F\	16ee-\	.
.	16f\	.
8e-J 8c 8A 8F\	16a\	.
.	16cc\JJ	.
*Xtremolo	*	*
=8	=8	=8
8d 8B-\	16ee-\LL	.
.	16dd\JJ	.
4BB-/	4b-\	.
=9:|!|:	=9:|!|:	=9:|!|:
*>B	*>B	*
!	!LO:TX:i:a:t=Viol&colon;	!
8C 8CC/	8cc\	f
!LO:TX:t=P:problem:diminuendolike accent	!	!
4B-^< 4G 4C\	8.bb-L 8.gg 8.cc\	< <
.	16een\Jk	[[
=10	=10	=10
8F 8FF/	16ff\LL	[
.	16aa\	.
8cL 8A 8F\	16gg\	.
.	16ff\	.
8cJ 8A 8F\	16een\	.
.	16dd\JJ	.
=11	=11	=11
!	!LO:TUP:a:problem:klamra łukowa	!
8E-\L	24cc\LL	.
.	24bn\	.
.	24cc\	.
8c 8B- 8G\	16dd\	.
.	16cc\	.
8cJ 8B- 8E-\	16b-X\	.
.	16g\JJ	.
=12	=12	=12
8F\L	16f\LL	.
.	16a\	.
8c 8A\	16cc\	.
.	16ff\J	.
8cJ 8A\	8aa\J	.
=13	=13	=13
8C 8CC/	8cc\	.
!LO:TX:t=P:problem:diminuendolike accent	!	!
4B-^< 4G 4C\	8.bb-L 8.gg 8.ee-\	< <
.	16een\Jk	[[
!!LO:LB:g=original
=14	=14	=14
8F 8FF/	16ff\LL	[
.	16aa\	.
8cL 8A 8F\	16gg\	.
.	16ff\	.
8cJ 8A 8F\	16een\	.
.	16dd\JJ	.
=15	=15	=15
!	!LO:TUP:a:problem:klamra łukowa	!
8E-\L	24cc\LL	.
.	24bn\	.
.	24cc\JJ	.
8c 8B- 8G\	16een\LL	.
.	16dd\	.
8cJ 8B- 8G\	16b-X\	.
.	16e-\JJ	.
=16	=16	=16
8A 8F\	16g\LL	.
.	16f\JJ	.
4FF/	4f\	.
=17:|!|:	=17:|!|:	=17:|!|:
*>C	*>C	*
!	!LO:TX:i:a:t=Clar&colon; dol&colon;	!
8B- 8BB-\	16b-\LL	p
.	16dd\JJ	.
8dL 8B- 8F\	8.ff\L	.
8dJ 8B- 8F\	.	.
.	16een\Jk	.
=18	=18	=18
*tremolo	*	*
8dL 8B- 8F\	16gg\LL	.
.	16ff\JJ	.
8d 8B- 8F\	8een\L	.
8dJ 8B- 8F\	8ff\J	.
=19	=19	=19
8dL 8B- 8F\	16f\LL	.
.	16b-\JJ	.
8d 8B- 8F\	8.dd\L	.
8dJ 8B- 8F\	.	.
.	16cc#X\Jk	.
!!LO:PB:g=original
=20	=20	=20
8dL 8B- 8F\	16.ee-\LL	.
.	32dd\K	.
8d 8B- 8F\	16.cc#X\	.
.	32dd\JK	.
8dJ 8B- 8F\	8b-\J	.
*Xtremolo	*	*
=21	=21	=21
8F 8FF/	8a\L	f
!LO:TX:t=P:problem:diminuendolike accent	!	!
4e-^< 4c 4A 4F\	8.gg 8.cc 8.a\	<
.	16ff\Jk	[[
=22	=22	=22
8B- 8BB-\	16een\LL	.
.	16ff\JJ	.
4d 4B- 4F\	8.bb-\L	.
.	16dd\Jk	.
=23	=23	=23
8F 8FF/	16gg\LL	.
.	16ff\JJ	.
8cL 8A 8F\	8.ee-X\L	.
8e-J 8c 8F\	.	.
.	16a\Jk	.
=24	=24	=24
8d 8B-\	16cc\LL	.
.	16b-\JJ	.
4BB-/	4b-\	.
=25:|!|:	=25:|!|:	=25:|!|:
*>D	*>D	*
!	!LO:TX:i:a:t=picolo	!LO:DY:a
.	8qqb-/	p
8E-X 8EE-X/	16.ggLL: 16.ee-X: 16.b-:\	.
.	32ff\K	.
8B-L 8G 8E-\	16.ee-\	.
.	32dd\K	.
8B-J 8G 8E-\	16.cc\	.
.	32bn\JJk	.
=26	=26	=26
8AA-X/	16dd\LL	.
.	16cc\JJ	.
8F/L 8C/	8a-X\L	.
8F/J 8C/	16f\L	.
.	16e-\JJ	.
!!LO:LB:g=original
=27	=27	=27
8BB-/	16.d\LL	.
.	32f\K	.
8A-XL 8F 8D/	16.b-X\	.
.	32dd\K	.
8A-J 8F 8D/	16.ff\	.
.	32aa-X\JJk	.
=28	=28	=28
8BB-/	16gg\LL	.
.	16ee-\	.
8G/L 8E-X/	16dd\	.
.	16ee-\	.
8G/J 8E-/	16ccc\	.
.	16bb-\JJ	.
=29	=29	=29
!	!LO:N:vis=8.	!
8E-X 8EE-X/	16.ggLL: 16.ee-X: 16.b-:\	.
!	!LO:N:vis=16	!
.	32ff\K	.
!	!LO:N:vis=8.	!
8B-L 8G 8E-\	16.ee-\	.
!	!LO:N:vis=16	!
.	32dd\K	.
!	!LO:N:vis=8.	!
8B-J 8G 8E-\	16.cc\	.
!	!LO:N:vis=16	!
.	32b-\JJk	.
=30	=30	=30
8AA-X/	16bn\LL	.
.	16cc\	.
8FL 8C/	16aa-X\	.
.	16gg\	.
8FJ 8C/	16ff\	.
.	16ee-\JJ	.
=31	=31	=31
.	8qee-/	.
8BB-/	16.dd\LL	.
.	32cc\K	.
8A-XL 8F 8D\	16.dd\	.
.	32b-\K	.
8A-J 8F 8BB-\	16.cc\	.
.	32dd\JJk	.
=32	=32	=32
8G 8E-X\	(16ff\LL	.
.	16ee-\JJ)	.
4EE-X/	4ee-\	.
==	==	==
*-	*-	*-
!!!system-decoration: {(p1)}
!!!RDF**kern: > = above
!!!RDF**kern: < = below
!!!ENC: Andrzej Gręziak
!!!END: 2022-08-24
!!!ENC: Kamil Watkowski
!!!END: 2022-09-30
